static/images/mobile/copyright/wikipedia-wordmark-mai.svg

<?xml version="1.0" encoding="UTF-8"?>
<svg width="120px" height="28px" viewBox="0 0 120 28" version="1.1" xmlns="http://www.w3.org/2000/svg" xmlns:xlink="http://www.w3.org/1999/xlink">
    <title>mai-wordmark</title>
    <g id="Page-1" stroke="none" stroke-width="1" fill="none" fill-rule="evenodd">
        <path d="M56.8886312,3.55271368e-15 C58.4467777,3.55271368e-15 60.1424077,0.458277007 61.9755212,1.37483102 C63.8315484,2.26847372 65.5730057,3.59748212 67.1998931,5.36185621 L67.1998931,6.18675717 C65.5500912,4.58278569 63.9232034,3.44854688 62.3192295,2.78404072 C60.7152557,2.11953457 59.2373082,1.7872815 57.8853869,1.7872815 C56.1897569,1.7872815 54.7003521,2.29138894 53.4171726,3.29960382 C52.1339939,4.28489958 51.4924045,5.31602578 51.4924045,6.39298241 C51.4924045,6.6908607 51.5726031,7.02311378 51.7330002,7.38974163 C51.9163118,7.73345036 52.1339939,8.00841735 52.3860464,8.21464259 L54.3108157,8.21464259 L55.6169093,9.52073967 L52.7297559,9.52073967 L53.0390938,27.599815 L51.2518076,25.8125335 L51.3892919,9.52073967 L40.8250794,9.52073967 L40.8250794,10.826825 C42.7956764,10.826825 44.4683924,11.5486134 45.8432273,12.99219 C47.2409759,14.4128554 47.9398502,16.1428586 47.9398502,18.1821997 C47.9398502,19.2133259 47.6648832,20.0496825 47.1149492,20.6912695 C46.5879289,21.3099453 45.9692532,21.6192831 45.2589221,21.6192831 C44.7319018,21.6192831 44.2736236,21.4245135 43.8840876,21.0349744 C43.4945507,20.6225239 43.2997823,20.1642469 43.2997823,19.6601433 C43.2997823,19.1789511 43.4601799,18.755045 43.7809749,18.3884249 C44.1246837,18.0217971 44.5142201,17.8384832 44.9495842,17.8384832 C45.339121,17.8384832 45.6942866,17.9530553 46.0150809,18.1821997 C46.3587896,18.3884249 46.6222998,18.6863032 46.8056114,19.0758346 C46.8972668,18.9383511 46.9660085,18.789412 47.0118366,18.6290172 C47.0576671,18.4686223 47.0805823,18.3082236 47.0805823,18.147821 C47.0805823,16.7042443 46.4619066,15.4783525 45.2245551,14.4701454 C44.0101173,13.4390192 42.5436266,12.9234561 40.825083,12.9234561 L40.825083,27.049885 L40.2064072,26.4655762 C40.0689238,25.5948448 39.8168708,24.8157704 39.4502484,24.1283529 C39.1065397,23.4180242 38.5680626,22.6733245 37.834817,21.894254 C36.964088,20.9318696 35.9329618,20.1527951 34.7414384,19.5570307 C33.5728287,18.938355 32.4729608,18.5831906 31.4418346,18.4915376 L29.7920327,15.9137221 C30.708589,15.2263046 31.5564037,14.6419998 32.3354765,14.1608075 C33.1145502,13.6566962 33.9165375,13.175504 34.7414384,12.7172309 C35.6809092,12.2131195 36.540181,11.8121247 37.3192539,11.5142464 C38.1212412,11.193449 38.8086587,10.9872238 39.3815063,10.8955707 L39.3815063,9.52073967 L26.8173367,9.52073967 L27.1266746,27.599815 L25.3393884,25.8125335 L25.4768727,9.52073967 L20.5725787,9.52073967 L20.5725787,27.049885 L19.9882735,26.4655762 C19.8278763,25.6865057 19.5414525,24.9418022 19.129002,24.2314656 C18.7165516,23.5211368 18.1093327,22.7420663 17.3073454,21.894254 C16.4137027,20.9318696 15.4054905,20.1642508 14.2827089,19.5913977 C13.1599273,19.0185524 11.9111191,18.6748437 10.5362841,18.5602715 L8.57714438,16.2917939 C10.6393968,14.7794755 12.6443642,13.5077531 14.5920468,12.476627 C16.5397293,11.4455008 18.0635046,10.8497403 19.1633725,10.6893455 L19.1633725,9.52073967 L5.67119407,9.52073967 L5.98053193,27.599815 L4.19324574,25.8125335 L4.33073002,9.52073967 L1.51231764,9.52073967 L0,8.21464259 L4.3651005,8.21464259 C3.90682193,7.77927299 3.49437145,7.26370989 3.12774907,6.6679533 C2.78404033,6.07218889 2.61218597,5.55662579 2.61218597,5.121264 C2.61218597,4.02139606 3.32251748,2.89861291 4.74318049,1.75291453 C6.18675717,0.584304843 7.88238678,3.55271368e-15 9.83006933,3.55271368e-15 C11.3882158,3.55271368e-15 13.0838458,0.458277007 14.9169593,1.37483102 C16.7729865,2.26847372 18.5144438,3.59748212 20.1413313,5.36185621 L20.1413313,6.18675717 C18.4915294,4.58278569 16.8646415,3.44854688 15.2606677,2.78404072 C13.6566939,2.11953457 12.1787463,1.7872815 10.826825,1.7872815 C9.13119504,1.7872815 7.64179067,2.29138894 6.35861192,3.29960382 C5.0754324,4.28489958 4.43384264,5.31602578 4.43384264,6.39298241 C4.43384264,6.6908607 4.51404121,7.02311378 4.67443836,7.38974163 C4.85774994,7.73345036 5.0754324,8.00841735 5.32748573,8.21464259 L25.5112432,8.21464259 C25.0529646,7.77927299 24.6405141,7.26370989 24.2738917,6.6679533 C23.930183,6.07218889 23.7583286,5.55662579 23.7583286,5.121264 C23.7583286,4.02139606 24.4686601,2.89861291 25.8893232,1.75291453 C27.3328998,0.584304843 29.0285294,3.55271368e-15 30.976212,3.55271368e-15 C32.5343585,3.55271368e-15 34.2299885,0.458277007 36.063102,1.37483102 C37.9191291,2.26847372 39.6605865,3.59748212 41.2874739,5.36185621 L41.2874739,6.18675717 C39.637672,4.58278569 38.0107842,3.44854688 36.4068103,2.78404072 C34.8028365,2.11953457 33.324889,1.7872815 31.9729677,1.7872815 C30.2773377,1.7872815 28.7879333,2.29138894 27.5047546,3.29960382 C26.2215751,4.28489958 25.5799853,5.31602578 25.5799853,6.39298241 C25.5799853,6.6908607 25.6601839,7.02311378 25.820581,7.38974163 C26.0038926,7.73345036 26.2215751,8.00841735 26.4736284,8.21464259 L51.4236624,8.21464259 C50.9653838,7.77927299 50.5529333,7.26370989 50.1863109,6.6679533 C49.8426022,6.07218889 49.6707478,5.55662579 49.6707478,5.121264 C49.6707478,4.02139606 50.3810793,2.89861291 51.8017424,1.75291453 C53.245319,0.584304843 54.9409486,3.55271368e-15 56.8886312,3.55271368e-15 Z M112.10544,8.21464259 L112.1782,8.28424619 C112.813612,8.37996447 113.324255,8.57445588 113.71013,8.86772042 C114.305895,9.2801709 114.981856,10.2883858 115.738016,11.8923651 L115.806796,11.8923651 L115.806796,5.15566612 L116.59733,5.98056708 C116.59733,6.66798454 116.723358,7.21791851 116.975414,7.63036899 C117.250381,8.01990816 117.639916,8.21467774 118.14402,8.21467774 L118.659583,8.21467774 L120,9.52073967 L118.487678,9.52073967 C118.212711,9.52073967 117.960659,9.4863688 117.731522,9.41762705 C117.525297,9.34888531 117.341987,9.25722834 117.181592,9.14265616 L117.112812,9.21143697 L117.387782,27.5998502 L115.600489,25.8125687 L115.66927,13.2328291 C115.210989,12.1100421 114.729797,11.2163994 114.225693,10.551901 C113.72159,9.86448356 113.274768,9.52077482 112.885229,9.52077482 L110.69623,9.52073967 L110.69623,27.049885 L110.077555,26.4655762 C109.894241,25.6635866 109.527617,24.8845122 108.977683,24.1283529 C108.427749,23.3492824 107.67159,22.6045828 106.709205,21.894254 C105.609337,21.069353 104.578211,20.4850482 103.615827,20.1413395 C102.676361,19.7747116 101.85146,19.5913977 101.141124,19.5913977 L99.3538422,17.4604114 C99.5600675,17.2770974 100.281856,16.6698774 101.519207,15.6387512 C102.756559,14.5847137 103.844971,13.7025266 104.784444,12.99219 C104.165768,12.3964335 103.547093,11.9267008 102.928417,11.5829921 C102.309741,11.2392833 101.748348,11.0330581 101.244236,10.9643163 C99.9381432,10.7810024 99.0788713,10.5976885 98.6664209,10.4143746 C98.2997982,10.2310632 98.078015,9.97533469 98.0010711,9.6471889 L97.9790065,9.52073967 L89.1290449,9.52073967 L89.1290449,16.2917939 C89.1290449,16.4980191 89.1863294,16.6469622 89.3008985,16.738623 C89.4154683,16.8302761 89.5758659,16.8761026 89.7820911,16.8761026 C90.0799717,16.8761026 90.4351373,16.7615343 90.8475878,16.5323978 C91.2600383,16.2803421 91.7068596,15.9137182 92.1880518,15.4325259 C92.5088469,15.1117285 92.8410988,14.7451046 93.1848075,14.3326541 C93.5285163,13.8972923 93.9180527,13.3702736 94.3534168,12.7515978 C95.2470595,13.3473622 95.9230202,14.1035215 96.3812987,15.0200755 C96.862491,15.9366295 97.1030871,17.0364974 97.1030871,18.3196793 C97.1030871,20.3819317 96.5416963,22.0431892 95.4189147,23.303452 C94.2961323,24.5637225 92.8296416,25.1938578 91.0194425,25.1938578 C89.3925543,25.1938578 87.9260636,24.701206 86.6199704,23.7159025 C85.3138772,22.7306067 84.2025524,21.1380909 83.2859961,18.938355 C82.8506312,17.8384871 82.4610943,16.58968 82.1173856,15.1919337 C81.7965913,13.7712684 81.5216243,12.1902082 81.2924847,10.4487532 L82.1861277,10.9299377 C82.5069228,12.5339169 82.8735456,13.966038 83.2859961,15.2263007 C83.6984466,16.4865635 84.1567247,17.5864314 84.6608306,18.5259045 C85.4628179,19.9923925 86.3564606,21.0578896 87.3417587,21.7223957 C88.3499713,22.3869019 89.4612964,22.719155 90.6757342,22.719155 C92.1880526,22.719155 93.4712318,22.2265032 94.5252716,21.2411996 C95.5793114,20.2559038 96.1063314,19.121665 96.1063314,17.8384832 C96.1063314,16.9906709 95.9688479,16.4178256 95.6938809,16.1199473 C95.4189139,15.8220612 95.2699736,15.6502068 95.2470599,15.6043842 C94.9262649,15.9251738 94.6283838,16.2230521 94.3534168,16.4980191 C94.1013643,16.7500748 93.8493114,16.9906709 93.597258,17.2198074 C92.9327542,17.8155719 92.3140785,18.2623932 91.7412309,18.5602715 C91.1683832,18.8352385 90.5955352,18.972722 90.0226868,18.972722 C89.6102363,18.972722 89.2665276,18.8696094 88.9915606,18.6633841 C88.7395081,18.4571589 88.4759983,18.0676236 88.2010313,17.4947783 C88.0406334,17.2198114 87.9146067,16.9563 87.8229513,16.7042443 C87.7542096,16.4292774 87.7198387,16.1772256 87.7198387,15.948089 L87.7198387,9.52073967 L77.8366031,9.52073967 L78.145941,27.599815 L76.3586548,25.8125335 L76.4961391,9.52073967 L72.7867704,9.52073967 C72.4201472,9.52073967 72.133723,9.4863688 71.9274978,9.41762705 C71.7212725,9.34888531 71.5952463,9.25722834 71.5494189,9.14265616 L71.4806733,9.21143697 L71.7556407,27.5998502 L69.9683545,25.8125687 L70.0714671,16.0856038 C69.7735865,15.4898472 69.3496792,14.8597158 68.7997452,14.1952097 C68.2498112,13.5077922 67.9061025,13.0724265 67.768619,12.8891126 C66.943718,13.6452718 65.8553069,14.7222284 64.5033857,16.1199825 C63.1743788,17.4948174 62.1547098,18.606141 61.4443787,19.4539533 L58.8665621,18.6290523 C59.7602048,17.6895792 60.3101387,17.0594478 60.516364,16.7386582 C60.7455037,16.4178608 60.8600735,16.0168659 60.8600735,15.5356737 C60.8600735,15.0544815 60.72259,14.6191158 60.447623,14.2295766 C60.172656,13.8400453 59.8404041,13.6452796 59.4508673,13.6452796 C59.1300722,13.6452796 58.7405358,13.7942188 58.282258,14.092097 C57.8468931,14.3899753 57.526098,14.5389145 57.3198728,14.5389145 C56.9074223,14.5389145 56.5522567,14.4128906 56.2543761,14.1608427 C55.9564955,13.8858757 55.8075551,13.5192518 55.8075551,13.0609709 C55.8075551,12.0298447 56.4835154,10.9758032 57.8354359,9.89884662 C59.2102708,8.79897868 60.6996756,8.24904471 62.3036502,8.24904471 C63.7472268,8.24904471 65.0876909,8.75315215 66.3250423,9.76136703 C67.5853074,10.7695819 68.8570297,12.4537547 70.1402092,14.8138854 L70.2089549,14.8138854 L70.2089549,5.15566612 L70.9651137,5.98056708 C70.9651137,6.64507323 71.1484249,7.18355155 71.5150473,7.59600202 C71.8816705,8.0084525 72.339949,8.21467774 72.889883,8.21467774 L76.5305095,8.21464259 C76.072231,7.77927299 75.6597805,7.26370989 75.2931581,6.6679533 C74.9494494,6.07218889 74.777595,5.55662579 74.777595,5.121264 C74.777595,4.02139606 75.4879265,2.89861291 76.9085895,1.75291453 C78.3521662,0.584304843 80.0477958,3.55271368e-15 81.9954784,3.55271368e-15 C83.5536249,3.55271368e-15 85.2492549,0.458277007 87.0823684,1.37483102 C88.9383955,2.26847372 90.6798528,3.59748212 92.3067403,5.36185621 L92.3067403,6.18675717 C90.6569384,4.58278569 89.0300505,3.44854688 87.4260767,2.78404072 C85.8221029,2.11953457 84.3441554,1.7872815 82.9922341,1.7872815 C81.2966041,1.7872815 79.8071993,2.29138894 78.5240198,3.29960382 C77.2408411,4.28489958 76.5992517,5.31602578 76.5992517,6.39298241 C76.5992517,6.6908607 76.6794503,7.02311378 76.8398474,7.38974163 C77.023159,7.73345036 77.2408411,8.00841735 77.4928936,8.21464259 L112.10544,8.21464259 Z M13.6640332,22.2379588 C14.1223118,22.2379588 14.5118482,22.4098132 14.8326425,22.7535219 C15.1534376,23.0743193 15.3138351,23.452399 15.3138351,23.8877607 C15.3138351,24.3460417 15.1534376,24.7470365 14.8326425,25.0907452 C14.5118482,25.4115348 14.1223118,25.5719296 13.6640332,25.5719296 C13.2057546,25.5719296 12.804761,25.4115348 12.4610523,25.0907452 C12.140258,24.7470365 11.9798608,24.3460417 11.9798608,23.8877607 C11.9798608,23.4294798 12.140258,23.0399446 12.4610523,22.719155 C12.804761,22.3983575 13.2057546,22.2379588 13.6640332,22.2379588 Z M109.287021,9.52073967 L102.756559,9.52073967 L106.91543,14.1951745 C106.113449,14.7909389 105.368749,15.3637881 104.681331,15.9137221 C104.016825,16.463656 103.295037,17.0823318 102.515966,17.7697492 C103.340867,17.9759745 104.360534,18.5488197 105.574966,19.4882851 C106.812318,20.4277582 108.026758,21.6765692 109.218287,23.2347181 L109.287021,23.2347181 L109.287021,9.52073967 Z M19.1633725,12.8890774 C18.2697298,13.04948 17.0667493,13.5306723 15.5544308,14.3326541 C14.0421124,15.1346437 12.7016484,15.9366334 11.5330387,16.738623 C13.0911852,17.288557 14.500391,18.0561719 15.7606561,19.0414676 C17.020922,20.0038521 18.1322471,21.2297479 19.0946316,22.719155 L19.1633725,22.719155 L19.1633725,12.8890774 Z M39.3815028,13.0265687 C38.9232242,13.1182218 38.4076611,13.2786166 37.8348135,13.5077531 C37.2619659,13.7368975 36.654747,14.0118645 36.0131568,14.3326541 C35.4173955,14.6534515 34.8216339,14.9971603 34.2258718,15.3637803 C33.6530234,15.707489 33.0916322,16.074113 32.5416982,16.4636521 C33.7790505,16.9677557 34.9591174,17.7009997 36.081899,18.6633841 C37.227595,19.6028573 38.3045489,20.8631239 39.3127606,22.4441841 L39.3815028,22.4441841 L39.3815028,13.0265687 Z M63.1285546,10.0363028 C62.3036537,10.0363028 61.4787527,10.2654393 60.6538518,10.7237124 C59.8289508,11.1819933 59.2331887,11.6861008 58.8665656,12.2360347 L59.2446456,12.2360347 C59.8633213,12.2360347 60.4705402,12.6370296 61.0663022,13.4390192 C61.684978,14.2180897 61.9599449,14.9169629 61.8912032,15.5356386 L66.2219332,11.3423881 C65.9698799,11.0215985 65.5345154,10.7237202 64.9158396,10.4487532 C64.2971639,10.1737863 63.7014023,10.0363028 63.1285546,10.0363028 Z" id="mai-wordmark" fill="#000000" fill-rule="nonzero"></path>
    </g>
</svg>

<svg xmlns="http://www.w3.org/2000/svg" width="120" height="28"><path fill="#000" fill-rule="nonzero" d="M56.889 0c1.558 0 3.253.458 5.087 1.375 1.856.893 3.597 2.222 5.224 3.987v.825c-1.65-1.604-3.277-2.738-4.88-3.403-1.605-.664-3.083-.997-4.435-.997-1.695 0-3.185.504-4.468 1.513-1.283.985-1.925 2.016-1.925 3.093 0 .298.08.63.241.997.183.343.401.618.653.825h1.925l1.306 1.306H52.73l.31 18.079-1.788-1.787.137-16.292H40.825v1.306c1.97 0 3.643.722 5.018 2.165 1.398 1.42 2.097 3.15 2.097 5.19 0 1.031-.275 1.868-.825 2.51-.527.618-1.146.927-1.856.927-.527 0-.985-.194-1.375-.584-.39-.412-.584-.87-.584-1.375 0-.481.16-.905.481-1.272.344-.366.733-.55 1.169-.55.39 0 .744.115 1.065.344.344.206.607.504.79.894.092-.138.161-.287.207-.447.046-.16.069-.32.069-.481 0-1.444-.62-2.67-1.856-3.678-1.215-1.031-2.681-1.547-4.4-1.547V27.05l-.619-.584c-.137-.871-.39-1.65-.756-2.338-.343-.71-.882-1.455-1.615-2.234a10.403 10.403 0 0 0-3.094-2.337c-1.168-.619-2.268-.974-3.3-1.065l-1.649-2.578a34.561 34.561 0 0 1 2.543-1.753c.78-.504 1.582-.985 2.406-1.444.94-.504 1.8-.905 2.578-1.203.802-.32 1.49-.527 2.063-.618V9.52H26.817l.31 18.079-1.788-1.787.138-16.292h-4.904V27.05l-.585-.584a7.396 7.396 0 0 0-.859-2.235c-.412-.71-1.02-1.489-1.822-2.337a10.818 10.818 0 0 0-3.024-2.303c-1.123-.572-2.372-.916-3.747-1.03l-1.959-2.27c2.062-1.512 4.067-2.783 6.015-3.814 1.948-1.031 3.472-1.627 4.571-1.788V9.521H5.671l.31 18.079-1.788-1.787.138-16.292H1.512L0 8.215h4.365a7.64 7.64 0 0 1-1.237-1.547c-.344-.596-.516-1.111-.516-1.547 0-1.1.71-2.222 2.131-3.368C6.187.584 7.883 0 9.83 0c1.558 0 3.254.458 5.087 1.375 1.856.893 3.597 2.222 5.224 3.987v.825c-1.65-1.604-3.276-2.738-4.88-3.403-1.604-.664-3.082-.997-4.434-.997-1.696 0-3.185.504-4.468 1.513-1.284.985-1.925 2.016-1.925 3.093 0 .298.08.63.24.997.184.343.401.618.653.825h20.184a7.64 7.64 0 0 1-1.237-1.547c-.344-.596-.516-1.111-.516-1.547 0-1.1.71-2.222 2.131-3.368C27.333.584 29.03 0 30.976 0c1.558 0 3.254.458 5.087 1.375 1.856.893 3.598 2.222 5.224 3.987v.825c-1.65-1.604-3.276-2.738-4.88-3.403-1.604-.664-3.082-.997-4.434-.997-1.696 0-3.185.504-4.468 1.513-1.283.985-1.925 2.016-1.925 3.093 0 .298.08.63.24.997.184.343.402.618.654.825h24.95a7.64 7.64 0 0 1-1.238-1.547c-.343-.596-.515-1.111-.515-1.547 0-1.1.71-2.222 2.13-3.368C53.246.584 54.942 0 56.89 0Zm55.216 8.215.073.07c.636.095 1.146.29 1.532.583.596.412 1.272 1.42 2.028 3.024h.069V5.156l.79.825c0 .687.126 1.237.378 1.65.275.389.665.584 1.169.584h.516L120 9.52h-1.512c-.275 0-.527-.035-.756-.103a2.06 2.06 0 0 1-.55-.275l-.07.068.276 18.389-1.788-1.787.07-12.58c-.459-1.123-.94-2.017-1.444-2.681-.504-.688-.951-1.031-1.34-1.031h-2.19V27.05l-.618-.584c-.184-.802-.55-1.581-1.1-2.338-.55-.779-1.306-1.523-2.269-2.234-1.1-.825-2.13-1.409-3.093-1.753-.94-.366-1.765-.55-2.475-.55l-1.787-2.13c.206-.184.928-.791 2.165-1.822a73.666 73.666 0 0 1 3.265-2.647c-.618-.596-1.237-1.065-1.856-1.409-.618-.344-1.18-.55-1.684-.619-1.306-.183-2.165-.366-2.578-.55-.366-.183-.588-.439-.665-.767l-.022-.126h-8.85v6.77c0 .207.057.356.172.448.114.091.275.137.481.137.298 0 .653-.114 1.066-.344.412-.252.859-.618 1.34-1.1.32-.32.653-.687.997-1.1.344-.435.733-.962 1.168-1.58.894.595 1.57 1.352 2.028 2.268.481.917.722 2.016.722 3.3 0 2.062-.561 3.723-1.684 4.983-1.123 1.26-2.59 1.89-4.4 1.89a7.124 7.124 0 0 1-4.399-1.477c-1.306-.985-2.417-2.578-3.334-4.778a29.099 29.099 0 0 1-1.169-3.746 53.097 53.097 0 0 1-.825-4.743l.894.48c.32 1.605.688 3.037 1.1 4.297.412 1.26.87 2.36 1.375 3.3.802 1.466 1.695 2.532 2.68 3.196a5.932 5.932 0 0 0 3.335.997c1.512 0 2.795-.492 3.85-1.478 1.053-.985 1.58-2.12 1.58-3.403 0-.847-.137-1.42-.412-1.718-.275-.298-.424-.47-.447-.516l-.894.894a21.97 21.97 0 0 1-.756.722c-.664.596-1.283 1.042-1.856 1.34a3.941 3.941 0 0 1-1.718.413c-.413 0-.756-.103-1.031-.31-.252-.206-.516-.595-.791-1.168a4.91 4.91 0 0 1-.378-.79 3.138 3.138 0 0 1-.103-.757V9.521h-9.883l.309 18.079-1.787-1.787.137-16.292h-3.71c-.366 0-.652-.035-.859-.103-.206-.07-.332-.16-.378-.275l-.068.068.275 18.389-1.788-1.787.103-9.727c-.297-.596-.721-1.226-1.271-1.89a74.247 74.247 0 0 1-1.031-1.307c-.825.756-1.914 1.833-3.266 3.231-1.329 1.375-2.348 2.486-3.059 3.334l-2.577-.825c.893-.94 1.443-1.57 1.65-1.89.229-.321.343-.722.343-1.203 0-.482-.137-.917-.412-1.306-.275-.39-.608-.585-.997-.585-.32 0-.71.15-1.169.447-.435.298-.756.447-.962.447-.413 0-.768-.126-1.066-.378-.298-.275-.446-.642-.446-1.1 0-1.031.676-2.085 2.027-3.162 1.375-1.1 2.865-1.65 4.469-1.65 1.443 0 2.784.504 4.021 1.512 1.26 1.009 2.532 2.693 3.815 5.053h.069V5.156l.756.825c0 .664.183 1.203.55 1.615.367.412.825.619 1.375.619h3.64a7.64 7.64 0 0 1-1.237-1.547c-.344-.596-.515-1.111-.515-1.547 0-1.1.71-2.222 2.13-3.368C78.353.584 80.049 0 81.996 0c1.559 0 3.254.458 5.087 1.375 1.856.893 3.598 2.222 5.225 3.987v.825c-1.65-1.604-3.277-2.738-4.88-3.403-1.605-.664-3.083-.997-4.435-.997-1.695 0-3.185.504-4.468 1.513-1.283.985-1.925 2.016-1.925 3.093 0 .298.08.63.24.997.184.343.402.618.654.825h34.612ZM13.664 22.238c.458 0 .848.172 1.169.516.32.32.48.698.48 1.134 0 .458-.16.859-.48 1.203-.321.32-.71.48-1.169.48-.458 0-.86-.16-1.203-.48a1.708 1.708 0 0 1-.481-1.203c0-.459.16-.848.481-1.169.344-.32.745-.481 1.203-.481Zm95.623-12.717h-6.53l4.158 4.674a78.92 78.92 0 0 0-2.234 1.719 90.707 90.707 0 0 0-2.165 1.856c.825.206 1.845.779 3.059 1.718 1.237.94 2.452 2.189 3.643 3.747h.069V9.52Zm-90.124 3.368c-.893.16-2.096.642-3.609 1.444a41.422 41.422 0 0 0-4.021 2.406 14.817 14.817 0 0 1 4.228 2.302c1.26.963 2.371 2.189 3.334 3.678h.068v-9.83Zm20.219.138a8.969 8.969 0 0 0-1.547.48c-.573.23-1.18.505-1.822.826-.596.32-1.191.664-1.787 1.03-.573.344-1.134.711-1.684 1.1 1.237.505 2.417 1.238 3.54 2.2 1.146.94 2.223 2.2 3.23 3.781h.07v-9.417Zm23.747-2.99c-.825 0-1.65.228-2.475.687-.825.458-1.42.962-1.787 1.512h.378c.618 0 1.226.401 1.821 1.203.619.78.894 1.478.825 2.097l4.33-4.194c-.251-.32-.686-.618-1.305-.893-.619-.275-1.215-.413-1.787-.413Z"/></svg>
